docs/assets/img/footer_icon_ridi.svg

<?xml version="1.0" encoding="UTF-8"?>
<svg width="36px" height="36px" viewBox="0 0 36 36" version="1.1" xmlns="http://www.w3.org/2000/svg" xmlns:xlink="http://www.w3.org/1999/xlink">
    <!-- Generator: Sketch 52.6 (67491) - http://www.bohemiancoding.com/sketch -->
    <title>Combined Shape</title>
    <desc>Created with Sketch.</desc>
    <g id="Symbols" stroke="none" stroke-width="1" fill="none" fill-rule="evenodd">
        <g id="footer/A-1" transform="translate(-997.000000, -30.000000)" fill="#9EAFBF" fill-rule="nonzero">
            <g id="Group" transform="translate(997.000000, 30.000000)">
                <g id="blog">
                    <path d="M18,36 C8.0588745,36 0,27.9411255 0,18 C0,8.0588745 8.0588745,0 18,0 C27.9411255,0 36,8.0588745 36,18 C36,27.9411255 27.9411255,36 18,36 Z M12.0328924,19.4141838 C12.9712934,18.9655648 13.447228,18.0645329 13.447228,16.7351788 C13.447228,15.5378497 13.1721761,14.6914487 12.6298498,14.219308 C12.0808842,13.7420456 11.1732131,13.5 9.93206535,13.5 L7.0449694,13.5 C6.83004957,13.5 6.75,13.5798599 6.75,13.7951591 L6.75,22.3101953 C6.75,22.5253048 6.83004957,22.6051647 7.0449694,22.6051647 L8.80093834,22.6051647 C9.01623754,22.6051647 9.09628712,22.5253048 9.09628712,22.3101953 L9.09628712,19.9293844 L9.09628712,19.8244853 L9.2011862,19.8244853 L9.68565684,19.8244853 L9.75166928,19.8244853 L9.78012292,19.8838586 L10.9516541,22.3210076 C11.0483965,22.5143027 11.2024255,22.6051647 11.4357454,22.6051647 L13.2186504,22.6051647 C13.3686959,22.6051647 13.3918382,22.55281 13.400564,22.5330821 C13.4286383,22.4689666 13.4146011,22.3828469 13.358832,22.2773787 L11.93615,19.5814912 L11.8855026,19.4851282 L11.9835728,19.4378952 L12.0328924,19.4141838 Z M10.8091962,17.6699757 C10.6371465,17.8693409 10.333072,17.9704462 9.90531893,17.9704462 L9.2011862,17.9704462 L9.09647681,17.9704462 L9.09647681,17.8655471 L9.09647681,15.5919116 L9.09647681,15.4870125 L9.20137589,15.4870125 L9.90550862,15.4870125 C10.3376246,15.4870125 10.6324043,15.5801507 10.8065405,15.7713592 C10.9774521,15.9580151 11.0607264,16.2734711 11.0607264,16.7353685 C11.0607264,17.1688123 10.9784005,17.4745941 10.8091962,17.6699757 Z M16.8948606,13.5 L15.125234,13.5 C14.9099347,13.5 14.8298852,13.5800496 14.8298852,13.7951591 L14.8298852,22.3100056 C14.8298852,22.5251151 14.9099347,22.6051647 15.125234,22.6051647 L16.8948606,22.6051647 C17.1097805,22.6051647 17.1896403,22.5251151 17.1896403,22.3100056 L17.1896403,13.7951591 C17.1896403,13.5800496 17.1097805,13.5 16.8948606,13.5 Z M21.6056452,13.5 L19.011432,13.5 C18.7965122,13.5 18.7164626,13.5800496 18.7164626,13.7951591 L18.7164626,22.3100056 C18.7164626,22.5251151 18.7965122,22.6051647 19.011432,22.6051647 L21.6325813,22.6051647 C22.9810941,22.6051647 23.9709014,22.2623931 24.5752567,21.5865244 C25.1847337,20.9055339 25.4935505,19.7165512 25.4935505,18.052772 C25.4935505,16.3888032 25.1824574,15.1998204 24.5691866,14.5192094 C23.960089,13.8427715 22.9632632,13.5 21.6056452,13.5 Z M22.7762279,20.0130381 C22.542339,20.3791416 22.1350726,20.5646593 21.5661895,20.5646593 L21.1811169,20.5646593 L21.0762178,20.5646593 L21.0762178,20.4597602 L21.0762178,15.645025 L21.0762178,15.540126 L21.1811169,15.540126 L21.5398224,15.540126 C22.1075674,15.540126 22.5182483,15.7250746 22.761432,16.0894709 C22.9941828,16.4383125 23.1070489,17.0804163 23.1070489,18.0525823 C23.1070489,19.0236102 22.9985457,19.6649552 22.7762279,20.0130381 Z M28.95541,13.5 L27.1855936,13.5 C26.9702944,13.5 26.8904345,13.5800496 26.8904345,13.7951591 L26.8904345,22.3100056 C26.8904345,22.5251151 26.9702944,22.6051647 27.1855936,22.6051647 L28.95541,22.6051647 C29.1703298,22.6051647 29.25,22.5251151 29.25,22.3100056 L29.25,13.7951591 C29.25,13.5800496 29.1703298,13.5 28.95541,13.5 Z" id="Combined-Shape"></path>
                </g>
            </g>
        </g>
    </g>
</svg>

<svg xmlns="http://www.w3.org/2000/svg" viewBox="0 0 36 36"><path d="M18 36C8.059 36 0 27.941 0 18S8.059 0 18 0s18 8.059 18 18-8.059 18-18 18zm-5.967-16.586c.938-.448 1.414-1.35 1.414-2.679 0-1.197-.275-2.044-.817-2.516-.55-.477-1.457-.719-2.698-.719H7.045c-.215 0-.295.08-.295.295v8.515c0 .215.08.295.295.295h1.756c.215 0 .295-.08.295-.295V19.824H9.752l.028.06 1.172 2.437c.096.193.25.284.484.284h1.783c.15 0 .173-.052.182-.072.028-.064.014-.15-.042-.256l-1.423-2.696-.05-.096.098-.047.049-.024zm-1.224-1.744c-.172.2-.476.3-.904.3H9.096v-2.483H9.906c.432 0 .726.093.9.284.171.187.255.502.255.964 0 .434-.083.74-.252.935zm6.086-4.17h-1.77c-.215 0-.295.08-.295.295v8.515c0 .215.08.295.295.295h1.77c.215 0 .295-.08.295-.295v-8.515c0-.215-.08-.295-.295-.295zm4.71 0h-2.594c-.214 0-.295.08-.295.295v8.515c0 .215.08.295.295.295h2.622c1.348 0 2.338-.343 2.942-1.018.61-.681.919-1.87.919-3.534 0-1.664-.312-2.853-.925-3.534-.609-.676-1.606-1.019-2.963-1.019zm1.171 6.513c-.234.366-.64.552-1.21.552h-.49V15.54H21.54c.568 0 .978.185 1.221.55.233.348.346.99.346 1.963 0 .97-.108 1.612-.33 1.96zm6.18-6.513h-1.77c-.216 0-.296.08-.296.295v8.515c0 .215.08.295.296.295h1.77c.214 0 .294-.08.294-.295v-8.515c0-.215-.08-.295-.295-.295z"/></svg>
